X:92
T:Cuz Teehan's
T:Cuz Teahan's Delight
R:polka
C:Cuz Teahan
D:Begley & Cooney: Meitheal
Z:id:hn-polka-92
M:2/4
L:1/8
K:A
cd/c/ BA|FA AB|cd/c/ BA|Bc e2|cd/c/ BA|FA AB|cB/c/ ec|1 BA AB:|2 BA A2||
|:af ec|ec BA|af ec|B/c/d e2|af ec|ec BA|cB/c/ ec|1 BA A2:|2 BA AB||
<end>
<start>
